!!!OTL: Leichter Trost (102), S. 253
!!!id: T0264
**kern
*clefG2
*k[f#c#g#]
*A:
{4e
=1
4.a
8e
4c#
4e
=2
4.a
8g#
4a}
=3
{4cc#
=4
4.b
8g#
8b
8a
8g#
8f#
=5
4e
8e
8f#
4e}
=6
{8e
8e
=7
4a
8a
8a
4b
4e
=8
4cc#
4ee
4dd}
=9
{4b
=10
4.cc#
8cc#
4b
4b
=11
4a}
2r
=12
{8e
8e
=13
4a
8a
8a
4b
4e
=14
4cc#
4ee
4dd}
=15
{4b
=16
4.cc#
8cc#
4b
4b
=17
4a}
2r
==
*-
!!!minrhy: 8
!!!meters: 4/4 ]  ZZ[6
!!!cut: Leichter Trost (102), S. 253
!!!reg: Luxemburg
!!!trd: Singendes Volk, Esch-Alzette 1937 posth.
!!!rhy1: X_  X_.XX_X_  X_.XX_
!!!rhy2: X_  X_.XXXXX  X_XXX_
!!!key: T0264  08  A 4/4 ]  ZZ[6
!!!mod: HEPTATONIK IONISCH]  AMBITUS[10b
!!!kad: 1-54141
!!!akz: 1-311_22-5-5_1234_321_1234_321_
!!!fot: 'a__b__c__d__c__d__
!!!for: 'a__b__c__aw_c__aw_
!!!fok: '~a_\__/__\__/__\__
!! PHRAS[AUFTAKTIG]
!!!fkt: Liebeslieder
!!!bem: Roder, hhh Nikolaus Grotz, 18.1.1934
!! THILL, Mathias:
!! PR[29] 2K[0] 2G[3] 3K[10] 3G[3] 4A[3] 4Ü[0] 5A[3] 6K[0] 6G[3]
!! 7K[0] 7G[0] 8A[0] MEHR[0] SI[26] ABS[31] SR[3] SP[23]
!! ST[8] 2k[13] 2g[23] 3k[0] 3g[3] 4d[6] 4ü[0] 5d[0] 6k[0] 6g[0]
!! 7k[0] 7g[0] 8d[0] mehr[0] si[45] dm[-19] sr[35] sp[10]
!! 1F[6] 2F[42] 3F[45] 4F[0] LF[0] 2P[6] 3P[0] 4P[0] TRI[0] DF[4] AB[33]
!! TF[0] U3K[0] U3[0] U4[0] U4Ü[0] U5[3] U6K[0] U6[0] U7K[0] U7[0]
!! N1[13] N2K[0] N2[6] N3K[0] N3[22] N4[25] N4Ü[0] N5[22] N6K[0] N6[9]
!!!n7k: 0] N7[0] O1[0] O2K[0] O2[0] O3K[0] O3[0] HÖ[0
